assets/svgs/swach-logo-line.svg

<svg height="44" viewBox="0 0 57 44" width="57" xmlns="http://www.w3.org/2000/svg" xmlns:xlink="http://www.w3.org/1999/xlink"><mask id="a" fill="#fff"><path d="m0 .10872509h56.0932053v43.87683071h-56.0932053z" fill="#fff" fill-rule="evenodd"/></mask><g fill="#fff" fill-rule="evenodd" transform="translate(0 .083361)"><path d="m49.8426891 25.5187131-6.4217047 6.4217047c1.2717407-5.202401-.120048-10.9284034-4.1757503-14.9839136l-9.5796399-9.57983193 1.0176231-1.01743097c2.6412485-2.64105643 6.1103481-3.96177671 9.5798319-3.96177671 3.4690997 0 6.9383914 1.32072028 9.5796399 3.96177671 5.2823049 5.2823049 5.2823049 13.8771669 0 19.1594718zm-23.8357743 16.0230492c-2.7614886-.4171909-5.4182954-1.684898-7.5401681-3.8065786l-.004994-.0051861c-5.2773109-5.2826891-5.2757743-13.8739016.0046098-19.1544778l9.5800241-9.57983192 9.5798319 9.57983192c5.2821128 5.2823049 5.2821128 13.8771669 0 19.1596639-3.1604322 3.1602401-7.5063626 4.4277551-11.6193037 3.8065786zm-19.75644661-16.0230492c-5.28230492-5.2823049-5.28230492-13.8771669 0-19.1594718 2.64105642-2.64105643 6.11034811-3.96177671 9.57963981-3.96177671 3.4692918 0 6.9385835 1.32072028 9.579832 3.96177671l1.017623 1.01743097-9.580024 9.57983193c-2.9914045 2.9912125-4.6390396 6.9685474-4.6390396 11.1988475.0001921 1.2884514.1551981 2.5528932.4521489 3.7737335zm45.21142861-20.77867949c-6.1750781-6.17488595-16.2228092-6.1752701-22.3978872 0l-1.017623 1.01762305-1.017431-1.01762305c-6.174886-6.17488595-16.2226171-6.1752701-22.3976951 0-6.17507803 6.17507799-6.17507803 16.22280909 0 22.39769509l12.2164706 12.2164706c.9648019.9648019 2.0242977 1.7790156 3.1485234 2.4422569 2.4737575 1.4593997 5.2621369 2.1890996 8.0501321 2.1890996h.000192c3.2952701 0 6.5905402-1.0191596 9.3662425-3.057479.6407683-.4702041 1.2534934-.994958 1.832413-1.5738775l12.2166627-12.2164706c6.175078-6.174886 6.175078-16.2226171 0-22.39769509z" mask="url(#a)"/><path d="m29.8918415 30.0006339c-.4773109.4771188-1.1117407.7398799-1.7865066.7398799s-1.3091956-.2627611-1.7865066-.7398799c-.9847779-.98497-.9847779-2.5878512 0-3.5730133.477311-.4769267 1.1117407-.7398799 1.7865066-.7398799s1.3091957.2629532 1.7865066.7398799c.98497.9851621.98497 2.5880433 0 3.5730133m-1.7865066-6.6026411c-1.2865306 0-2.4958463.5009364-3.4055222 1.4106122-1.8779351 1.8777431-1.8779351 4.9333014 0 6.8110445.9096759.9098679 2.1189916 1.4108043 3.4055222 1.4108043s2.4958464-.5009364 3.4055222-1.4108043c1.8779352-1.8777431 1.8779352-4.9333014 0-6.8110445-.9096758-.9096758-2.1189916-1.4106122-3.4055222-1.4106122"/></g></svg>

<?xml version="1.0" encoding="UTF-8"?>
<svg width="57px" height="44px" viewBox="0 0 57 44" version="1.1" xmlns="http://www.w3.org/2000/svg" xmlns:xlink="http://www.w3.org/1999/xlink">
    <!-- Generator: Sketch 63.1 (92452) - https://sketch.com -->
    <desc>Created with Sketch.</desc>
    <defs>
        <polygon id="path-1" points="0 0.108725089 56.0932053 0.108725089 56.0932053 43.9855558 0 43.9855558"></polygon>
    </defs>
    <g id="Landing-Page" stroke="none" stroke-width="1" fill="none" fill-rule="evenodd">
        <g id="Swach-homepage" transform="translate(-150.000000, -4078.000000)">
            <g id="Group-16" transform="translate(150.000000, 4078.000000)">
                <g id="Group-10" transform="translate(0.000000, 0.083361)">
                    <g id="Group-13" transform="translate(0.000000, 0.000000)">
                        <mask id="mask-2" fill="white">
                            <use xlink:href="#path-1"></use>
                        </mask>
                        <g id="Clip-12"></g>
                        <path d="M49.8426891,25.5187131 L43.4209844,31.9404178 C44.6927251,26.7380168 43.3009364,21.0120144 39.2452341,16.9565042 L29.6655942,7.37667227 L30.6832173,6.3592413 C33.3244658,3.71818487 36.7935654,2.39746459 40.2630492,2.39746459 C43.7321489,2.39746459 47.2014406,3.71818487 49.8426891,6.3592413 C55.124994,11.6415462 55.124994,20.2364082 49.8426891,25.5187131 L49.8426891,25.5187131 Z M26.0069148,41.5417623 C23.2454262,41.1245714 20.5886194,39.8568643 18.4667467,37.7351837 L18.4617527,37.7299976 C13.1844418,32.4473085 13.1859784,23.856096 18.4663625,18.5755198 L28.0463866,8.99568788 L37.6262185,18.5755198 C42.9083313,23.8578247 42.9083313,32.4526867 37.6262185,37.7351837 C34.4657863,40.8954238 30.1198559,42.1629388 26.0069148,41.5417623 L26.0069148,41.5417623 Z M6.25046819,25.5187131 C0.968163265,20.2364082 0.968163265,11.6415462 6.25046819,6.3592413 C8.89152461,3.71818487 12.3608163,2.39746459 15.830108,2.39746459 C19.2993998,2.39746459 22.7686915,3.71818487 25.40994,6.3592413 L26.427563,7.37667227 L16.847539,16.9565042 C13.8561345,19.9477167 12.2084994,23.9250516 12.2084994,28.1553517 C12.2086915,29.4438031 12.3636975,30.7082449 12.6606483,31.9290852 L6.25046819,25.5187131 Z M51.4618968,4.74003361 C45.2868187,-1.43485234 35.2390876,-1.43523649 29.0640096,4.74003361 L28.0463866,5.75765666 L27.0289556,4.74003361 C20.8540696,-1.43485234 10.8063385,-1.43523649 4.6312605,4.74003361 C-1.54381753,10.9151116 -1.54381753,20.9628427 4.6312605,27.1377287 L16.8477311,39.3541993 C17.812533,40.3190012 18.8720288,41.1332149 19.9962545,41.7964562 C22.470012,43.2558559 25.2583914,43.9855558 28.0463866,43.9855558 L28.0465786,43.9855558 C31.3418487,43.9855558 34.6371188,42.9663962 37.4128211,40.9280768 C38.0535894,40.4578727 38.6663145,39.9331188 39.2452341,39.3541993 L51.4618968,27.1377287 C57.6369748,20.9628427 57.6369748,10.9151116 51.4618968,4.74003361 L51.4618968,4.74003361 Z" id="Fill-11" fill="#FFFFFF" mask="url(#mask-2)"></path>
                    </g>
                    <path d="M29.8918415,30.0006339 C29.4145306,30.4777527 28.7801008,30.7405138 28.1053349,30.7405138 C27.430569,30.7405138 26.7961393,30.4777527 26.3188283,30.0006339 C25.3340504,29.0156639 25.3340504,27.4127827 26.3188283,26.4276206 C26.7961393,25.9506939 27.430569,25.6877407 28.1053349,25.6877407 C28.7801008,25.6877407 29.4145306,25.9506939 29.8918415,26.4276206 C30.8768115,27.4127827 30.8768115,29.0156639 29.8918415,30.0006339 M28.1053349,23.3979928 C26.8188043,23.3979928 25.6094886,23.8989292 24.6998127,24.808605 C22.8218776,26.6863481 22.8218776,29.7419064 24.6998127,31.6196495 C25.6094886,32.5295174 26.8188043,33.0304538 28.1053349,33.0304538 C29.3918655,33.0304538 30.6011813,32.5295174 31.5108571,31.6196495 C33.3887923,29.7419064 33.3887923,26.6863481 31.5108571,24.808605 C30.6011813,23.8989292 29.3918655,23.3979928 28.1053349,23.3979928" id="Fill-14" fill="#FFFFFF"></path>
                </g>
            </g>
        </g>
    </g>
</svg>
